X:173
T:RVW2/2/173 Ingatestone Hall
C:Mr. Broomfield, Herongate, Essex, 26 October 1904
L:1/8
Q:1/4=99
M:6/8
I:linebreak $
K:G
"^(Editorial suggestion)  " D | G2 G AGA | B2 G D2 D | G2 G (AG)A | B3 z z B |$ d2 d (BA)G | 
w: When|I was young in my|youth- ful days scarce|twen- ty four _ years|old I|spent my time _ in|
B2 G (EF)G | AAF (DE)F | G2 z z2 |] 
w: van- i- ty _ a-|long with the la- * dies|bold.|



